launcher/android/assets/skins/day/svg/mapFound1.svg

<svg enable-background="new 0 0 258.00 258.00" height="258" viewBox="0 0 258 258" width="258" xmlns="http://www.w3.org/2000/svg" xmlns:xlink="http://www.w3.org/1999/xlink"><radialGradient id="a" cx="130.959" cy="204.856" gradientTransform="matrix(-1 0 0 -1 261.918946 409.711792)" gradientUnits="userSpaceOnUse" r="105.055"><stop offset="0" stop-color="#a8a162"/><stop offset="1"/></radialGradient><filter id="b" filterUnits="userSpaceOnUse"><feGaussianBlur stdDeviation="7.937"/></filter><linearGradient id="c"><stop offset="0" stop-color="#ffffd6"/><stop offset=".376744" stop-color="#fffd31"/><stop offset=".740593" stop-color="#ffc817"/><stop offset="1" stop-color="#f6a700"/></linearGradient><radialGradient id="d" cx="149.517" cy="89.4858" gradientTransform="matrix(-.547192089197 -.837007059421 .837007059421 -.547192089197 156.430675077293 263.598140739036)" gradientUnits="userSpaceOnUse" r="139.918" xlink:href="#c"/><linearGradient id="e"><stop offset="0" stop-color="#fffffb"/><stop offset=".755398" stop-color="#fbfbfb"/><stop offset="1" stop-color="#b3b3b3"/></linearGradient><radialGradient id="f" cx="167.286" cy="54.7402" gradientTransform="matrix(-.999346870845 -.036136293828 .036136293828 -.999346870845 332.484411733029 115.489685635206)" gradientUnits="userSpaceOnUse" r="31.8201" xlink:href="#e"/><radialGradient id="g" cx="94.4182" cy="59.8533" gradientTransform="matrix(-.996771583116 .080289545352 -.080289545352 -.996771583116 193.337201541364 111.932639094415)" gradientUnits="userSpaceOnUse" r="30.4337" xlink:href="#e"/><linearGradient id="h"><stop offset="0" stop-color="#b88000"/><stop offset="1" stop-color="#4f2f00"/></linearGradient><radialGradient id="i" cx="95.2661" cy="68.0849" gradientUnits="userSpaceOnUse" r="17.8884" xlink:href="#h"/><radialGradient id="j" cx="167.252" cy="67.0266" gradientUnits="userSpaceOnUse" r="16.8301" xlink:href="#h"/><linearGradient id="k"><stop offset="0" stop-color="#fff" stop-opacity=".388235"/><stop offset="1" stop-opacity=".388235"/></linearGradient><linearGradient id="l" gradientTransform="matrix(-.089663242828 .995972139613 -.995972139613 -.089663242828 .696147255234 -.606903327477)" gradientUnits="objectBoundingBox" x1=".625434" x2="1.6832" xlink:href="#k" y1=".0146943" y2=".0146943"/><linearGradient id="m" gradientTransform="matrix(-.08709617515 .996199907787 -.996199907787 -.08709617515 .714947575531 -.558468075372)" gradientUnits="objectBoundingBox" x1=".61336" x2="1.57975" xlink:href="#k" y1=".0483495" y2=".0483495"/><radialGradient id="n" cx="105.7" cy="65.0618" gradientUnits="userSpaceOnUse" r="13.8209" xlink:href="#h"/><radialGradient id="o" cx="86.616" cy="53.4875" gradientUnits="userSpaceOnUse" r="2.29822" xlink:href="#h"/><radialGradient id="p" cx="94.5089" cy="50.7186" gradientUnits="userSpaceOnUse" r="5.87061" xlink:href="#e"/><radialGradient id="q" cx="82.053" cy="70.8796" gradientUnits="userSpaceOnUse" r="15.094" xlink:href="#h"/><radialGradient id="r" cx="159.382" cy="78.5114" gradientTransform="matrix(-.547855962219 -.836572677453 .836572677453 -.547855962219 181.019243624449 254.858645418338)" gradientUnits="userSpaceOnUse" r="139.91" xlink:href="#c"/><radialGradient id="s" cx="129.443" cy="154.979" gradientTransform="matrix(.212542141981 .97715190113 -.97715190113 .212542141981 253.369347641138 -4.445695925591)" gradientUnits="userSpaceOnUse" r="87.5694"><stop offset="0" stop-color="#9e1f01"/><stop offset=".943965" stop-color="#180906"/></radialGradient><radialGradient id="t" cx="117.689" cy="164.439" gradientUnits="userSpaceOnUse" r="30.8634"><stop offset="0" stop-color="#f1ebea"/><stop offset=".0818966" stop-color="#f77f7f"/><stop offset=".280172" stop-color="#fd1414"/><stop offset=".521552" stop-color="#f00"/><stop offset=".722198" stop-color="#ba0c01"/><stop offset=".943965" stop-color="#751803"/></radialGradient><radialGradient id="u" cx="130.909" cy="135.221" gradientUnits="userSpaceOnUse" r="68.4973"><stop offset="0" stop-color="#f8f6f2"/><stop offset=".646512" stop-color="#f0eeea"/><stop offset="1" stop-color="#999a9d"/></radialGradient><g stroke-linejoin="round"><g stroke-width=".2"><path d="m51.2236 204.122c0 11.006 35.699 20.254 79.7364 20.661l0 0c44.037.405 79.737-8.188 79.737-19.192l0 0c0-11.005-35.7-20.254-79.737-20.66l0 0c-.999-.008-1.995-.013-2.986-.013l0 0c-42.6545 0-76.7504 8.449-76.7504 19.204z" fill="url(#a)" filter="url(#b)"/><path d="m28.5042 119.506c0 54.761 44.7658 99.154 99.9888 99.154l0 0c55.223 0 99.988-44.393 99.988-99.154l0 0c0-54.7601-44.765-99.1518-99.988-99.1518l0 0c-55.223 0-99.9888 44.3917-99.9888 99.1518z" fill="url(#d)"/><path d="m143.965 63.1735c0 4.4137.589 8.6375 1.654 12.5149l0 0c15.964.6402 30.273 4.2171 40.84 9.6868l0 0c3.562-5.9876 5.725-13.7374 5.725-22.2017l0 0c0-18.9729-11.161-33.7362-27.059-33.7362l0 0c-10.04 0-21.16 14.7633-21.16 33.7362z" fill="url(#f)"/><path d="m70.3077 65.9267c0 8.4644 2.1637 16.2142 5.725 22.2018l0 0c10.5681-5.4696 24.8763-9.0467 40.8403-9.6868l0 0c1.064-3.8773 1.653-8.1012 1.653-12.515l0 0c0-18.9728-8.875-31.707-16.992-33.736l0 0c-1.5884-.3966-3.1583-.5858-4.6961-.5858l0 0c-14.6604-.0016-26.5302 17.1497-26.5302 34.3218z" fill="url(#g)"/><path d="m174.926 77.539c0-8.0645-3.709-14.6017-8.284-14.6017-4.538 0-8.225 6.4356-8.282 14.4131 5.823.8496 11.307 2.1041 16.324 3.7013.158-1.1252.242-2.3018.242-3.5127z"/><path d="m88.6382 51.1894c-1.4895 1.1741-2.8522 2.7309-4.0444 4.5962-3.1261 4.8909-5.0815 11.9027-5.0815 19.6959 0 3.7245.4472 7.2708 1.2552 10.4922 2.1696-.9196 4.4603-1.7675 6.8579-2.5372-.4523-1.8035-.7035-3.7989-.7035-5.8975 0-8.0645 3.7092-14.6017 8.2835-14.6017 4.5744 0 8.2826 6.5372 8.2826 14.6017 0 .7632-.033 1.5127-.097 2.2441 2.442-.3731 4.947-.6748 7.503-.9003.083-1.1139.126-2.2492.126-3.4015 0-9.5614-2.934-17.9604-7.373-22.6963-1.055-.6226-2.146-1.1398-3.267-1.5441-1.8982-.684-3.8844-1.0444-5.937-1.0444-1.9972 0-3.9491.3413-5.8048.9929z" fill="url(#i)"/><path d="m158.87 52.7845c-4.439 4.7364-7.372 13.1349-7.372 22.697 0 .3593.004.717.012 1.0729 2.329.2034 4.615.4697 6.85.796.057-7.9775 3.744-14.4131 8.282-14.4131 4.575 0 8.284 6.5372 8.284 14.6017 0 1.2109-.084 2.3875-.242 3.5127 2.648.8425 5.166 1.7806 7.536 2.8048.51-2.6344.786-5.4497.786-8.375 0-10.7654-3.732-20.0398-9.127-24.2919-1.855-.6518-3.807-.9931-5.804-.9931-3.267 0-6.364.9128-9.205 2.588z" fill="url(#j)"/><path d="m103.391 79.7831c.064-.7314.097-1.4809.097-2.2441 0-8.0645-3.7082-14.6017-8.2826-14.6017-4.5743 0-8.2835 6.5372-8.2835 14.6017 0 2.0986.2512 4.094.7035 5.8975 4.8542-1.5581 10.1473-2.7947 15.7656-3.6534z"/><path d="m106.706 66.695c0 7.0476-3.371 12.76-7.5305 12.76-4.1594 0-7.5305-5.7124-7.5305-12.76 0-7.0471 3.3711-12.7601 7.5305-12.7601 4.1595 0 7.5305 5.713 7.5305 12.7601z" fill="url(#l)"/><path d="m162.924 67.1132c0 7.0479 3.371 12.7602 7.531 12.7602 4.158 0 7.53-5.7123 7.53-12.7602 0-7.0469-3.372-12.76-7.53-12.76-4.16 0-7.531 5.7131-7.531 12.76z" fill="url(#m)"/><path d="m111.021 75.4815c0-9.5621-2.935-17.9606-7.374-22.697-1.055-.6225-2.146-1.1395-3.267-1.5436 1.121.4043 2.212.9215 3.267 1.5441 4.439 4.7359 7.373 13.1349 7.373 22.6963 0 1.1523-.043 2.2876-.125 3.4012.083-1.1136.126-2.2488.126-3.401z" fill="url(#n)"/><path d="m88.6378 51.1896c-1.4894 1.174-2.8518 2.7307-4.044 4.596 1.1922-1.8653 2.5549-3.4221 4.044-4.596z" fill="url(#o)"/><path d="m88.6382 51.1894c1.8557-.6516 3.8076-.9929 5.8048-.9929 2.0526 0 4.0388.3604 5.937 1.0444-1.8982-.6841-3.8844-1.0448-5.9371-1.0448-1.9973 0-3.9495.3413-5.8047.9933z" fill="url(#p)"/><path d="m80.7675 85.9737c-.808-3.2214-1.2552-6.7677-1.2552-10.4922 0-7.7932 1.9554-14.805 5.0815-19.6959-3.1264 4.891-5.0816 11.9026-5.0816 19.6957 0 3.7247.447 7.271 1.2553 10.4924z" fill="url(#q)"/><path d="m128.516 20.9538c-55.2233 0-99.9891 44.3917-99.9891 99.1522 0 54.761 44.7658 99.153 99.9891 99.153 55.222 0 99.988-44.392 99.988-99.153 0-54.7605-44.766-99.1522-99.988-99.1522zm-70.8622 70.135c0-21.9084 30.5587-39.6694 68.2532-39.6694 37.694 0 68.253 17.761 68.253 39.6694 0 21.9082-30.558 39.6692-68.253 39.6692-37.6952 0-68.2532-17.761-68.2532-39.6692z" fill="url(#r)"/></g><path d="m113.371 32.0746s-39.2442 9.4576-54.5304 42.1226c5.4245-38.4611 54.5304-42.1226 54.5304-42.1226z" fill="#643d00" stroke="#653d00" stroke-linecap="round" stroke-width="7.224"/><path d="m152.244 36.132s35.317 8.8659 49.42 42.1226c-10.453-37.5733-49.42-42.1226-49.42-42.1226z" fill="#643d00" stroke="#653d00" stroke-linecap="round" stroke-width="7.224"/><path d="m69.1808 105.908c-1.3546 5.293-.7572 19.467.4779 29.219 1.235 9.751 3.1074 15.081 5.7124 19.994 2.605 4.914 5.9425 9.411 11.783 13.217 5.8404 3.805 14.1839 6.919 24.1969 8.476 10.012 1.557 21.693 1.557 31.914-.519s18.981-6.228 26.282-11.59 13.141-11.936 16.896-18.336 5.423-12.628 5.972-19.395c.549-6.768-.023-14.077-.96-18.445-.937-4.367-2.241-5.795-4.664-5.6-2.422.195-5.964 2.011-8.438 3.503-2.475 1.492-3.883 2.66-11.119 4.184-7.235 1.525-20.298 3.406-28.983 4.336-8.685.929-12.991.908-18.065.983-5.074.076-10.914.249-18.215-1.092-7.3006-1.34-16.0613-4.195-22.0951-7.416-6.0339-3.222-9.3405-6.811-10.6951-1.519z" fill="url(#s)" stroke="#d98004" stroke-width="4"/><path d="m126.558 146.326c10.884 0 19.708 6.488 19.708 14.491s-8.824 14.491-19.708 14.491c-10.885 0-19.708-6.488-19.708-14.491s8.823-14.491 19.708-14.491z" fill="url(#t)" stroke-width=".2"/><path d="m72.054 107.55c.7169 4.152 3.5181 13.583 11.6886 22.279 8.1702 8.696 21.7094 16.656 33.3384 20.346 11.628 3.691 21.345 3.111 31.771-1.526 10.425-4.637 21.559-13.332 29.02-22.37s11.249-18.419 9.927-21.068c-1.322-2.648-7.754 1.435-17.146 4.628-9.392 3.192-21.744 5.493-34.296 6.716s-25.305 1.368-35.719-.63c-10.414-1.997-18.4905-6.137-23.2122-8.77-4.7218-2.632-6.0889-3.758-5.3718.395z" fill="url(#u)" stroke-width=".2"/><path d="m83.6156 96.4914s-16.8065 3.1514-23.3529 14.0366c2.3231-12.8165 23.3529-14.0366 23.3529-14.0366z" fill="#d98004" stroke="#d98004" stroke-linecap="round" stroke-width="3"/><path d="m200.814 113.321s-8.883-14.6106-21.378-16.8916c12.811-2.3522 21.378 16.8916 21.378 16.8916z" fill="#d98004" stroke="#d98004" stroke-linecap="round" stroke-width="3"/></g></svg>

﻿<?xml version="1.0" encoding="utf-8"?>
<!DOCTYPE svg PUBLIC "-//W3C//DTD SVG 1.1//EN" "http://www.w3.org/Graphics/SVG/1.1/DTD/svg11.dtd">
<svg xmlns="http://www.w3.org/2000/svg" xmlns:xlink="http://www.w3.org/1999/xlink" version="1.1" baseProfile="full" width="258" height="258" viewBox="0 0 258.00 258.00" enable-background="new 0 0 258.00 258.00" xml:space="preserve">
	<radialGradient id="SVGID_Fill1_" cx="130.959" cy="204.856" r="105.055" gradientUnits="userSpaceOnUse" gradientTransform="rotate(180.000000 130.959473 204.855896)">
		<stop offset="0" stop-color="#A8A162" stop-opacity="1"/>
		<stop offset="1" stop-color="#000000" stop-opacity="1"/>
	</radialGradient>
	<filter id="Filter_GaussianBlur1_" filterUnits="userSpaceOnUse">
		<feGaussianBlur stdDeviation="7.937"/>
	</filter>
	<path fill="url(#SVGID_Fill1_)" stroke-width="0.2" stroke-linejoin="round" filter="url(#Filter_GaussianBlur1_)" d="M 51.2236,204.122C 51.2236,215.128 86.9226,224.376 130.96,224.783L 130.96,224.783C 174.997,225.188 210.697,216.595 210.697,205.591L 210.697,205.591C 210.697,194.586 174.997,185.337 130.96,184.931L 130.96,184.931C 129.961,184.923 128.965,184.918 127.974,184.918L 127.974,184.918C 85.3195,184.918 51.2236,193.367 51.2236,204.122 Z "/>
	<g>
		<radialGradient id="SVGID_Fill2_" cx="149.517" cy="89.4858" r="139.918" gradientUnits="userSpaceOnUse" gradientTransform="rotate(236.825409 149.516602 89.485779)">
			<stop offset="0" stop-color="#FFFFD6" stop-opacity="1"/>
			<stop offset="0.376744" stop-color="#FFFD31" stop-opacity="1"/>
			<stop offset="0.740593" stop-color="#FFC817" stop-opacity="1"/>
			<stop offset="1" stop-color="#F6A700" stop-opacity="1"/>
		</radialGradient>
		<path fill="url(#SVGID_Fill2_)" stroke-width="0.2" stroke-linejoin="round" d="M 28.5042,119.506C 28.5042,174.267 73.27,218.66 128.493,218.66L 128.493,218.66C 183.716,218.66 228.481,174.267 228.481,119.506L 228.481,119.506C 228.481,64.7459 183.716,20.3542 128.493,20.3542L 128.493,20.3542C 73.27,20.3542 28.5042,64.7459 28.5042,119.506 Z "/>
		<g>
			<radialGradient id="SVGID_Fill3_" cx="167.286" cy="54.7402" r="31.8201" gradientUnits="userSpaceOnUse" gradientTransform="rotate(182.070908 167.285889 54.740173)">
				<stop offset="0" stop-color="#FFFFFB" stop-opacity="1"/>
				<stop offset="0.755398" stop-color="#FBFBFB" stop-opacity="1"/>
				<stop offset="1" stop-color="#B3B3B3" stop-opacity="1"/>
			</radialGradient>
			<path fill="url(#SVGID_Fill3_)" stroke-width="0.2" stroke-linejoin="round" d="M 143.965,63.1735C 143.965,67.5872 144.554,71.811 145.619,75.6884L 145.619,75.6884C 161.583,76.3286 175.892,79.9055 186.459,85.3752L 186.459,85.3752C 190.021,79.3876 192.184,71.6378 192.184,63.1735L 192.184,63.1735C 192.184,44.2006 181.023,29.4373 165.125,29.4373L 165.125,29.4373C 155.085,29.4373 143.965,44.2006 143.965,63.1735 Z "/>
			<radialGradient id="SVGID_Fill4_" cx="94.4182" cy="59.8533" r="30.4337" gradientUnits="userSpaceOnUse" gradientTransform="rotate(175.394791 94.418213 59.853333)">
				<stop offset="0" stop-color="#FFFFFB" stop-opacity="1"/>
				<stop offset="0.755398" stop-color="#FBFBFB" stop-opacity="1"/>
				<stop offset="1" stop-color="#B3B3B3" stop-opacity="1"/>
			</radialGradient>
			<path fill="url(#SVGID_Fill4_)" stroke-width="0.2" stroke-linejoin="round" d="M 70.3077,65.9267C 70.3077,74.3911 72.4714,82.1409 76.0327,88.1285L 76.0327,88.1285C 86.6008,82.6589 100.909,79.0818 116.873,78.4417L 116.873,78.4417C 117.937,74.5644 118.526,70.3405 118.526,65.9267L 118.526,65.9267C 118.526,46.9539 109.651,34.2197 101.534,32.1907L 101.534,32.1907C 99.9456,31.7941 98.3757,31.6049 96.8379,31.6049L 96.8379,31.6049C 82.1775,31.6033 70.3077,48.7546 70.3077,65.9267 Z "/>
			<path fill="#000000" fill-opacity="1" stroke-width="0.2" stroke-linejoin="round" d="M 174.926,77.539C 174.926,69.4745 171.217,62.9373 166.642,62.9373C 162.104,62.9373 158.417,69.3729 158.36,77.3504C 164.183,78.2 169.667,79.4545 174.684,81.0517C 174.842,79.9265 174.926,78.7499 174.926,77.539 Z "/>
			<radialGradient id="SVGID_Fill5_" cx="95.2661" cy="68.0849" r="17.8884" gradientUnits="userSpaceOnUse">
				<stop offset="0" stop-color="#B88000" stop-opacity="1"/>
				<stop offset="1" stop-color="#4F2F00" stop-opacity="1"/>
			</radialGradient>
			<path fill="url(#SVGID_Fill5_)" stroke-width="0.2" stroke-linejoin="round" d="M 88.6382,51.1894C 87.1487,52.3635 85.786,53.9203 84.5938,55.7856C 81.4677,60.6765 79.5123,67.6883 79.5123,75.4815C 79.5123,79.206 79.9595,82.7523 80.7675,85.9737C 82.9371,85.0541 85.2278,84.2062 87.6254,83.4365C 87.1731,81.633 86.9219,79.6376 86.9219,77.539C 86.9219,69.4745 90.6311,62.9373 95.2054,62.9373C 99.7798,62.9373 103.488,69.4745 103.488,77.539C 103.488,78.3022 103.455,79.0517 103.391,79.7831C 105.833,79.41 108.338,79.1083 110.894,78.8828C 110.977,77.7689 111.02,76.6336 111.02,75.4813C 111.02,65.9199 108.086,57.5209 103.647,52.785C 102.592,52.1624 101.501,51.6452 100.38,51.2409C 98.4818,50.5569 96.4956,50.1965 94.443,50.1965C 92.4458,50.1965 90.4939,50.5378 88.6382,51.1894 Z "/>
			<radialGradient id="SVGID_Fill6_" cx="167.252" cy="67.0266" r="16.8301" gradientUnits="userSpaceOnUse">
				<stop offset="0" stop-color="#B88000" stop-opacity="1"/>
				<stop offset="1" stop-color="#4F2F00" stop-opacity="1"/>
			</radialGradient>
			<path fill="url(#SVGID_Fill6_)" stroke-width="0.2" stroke-linejoin="round" d="M 158.87,52.7845C 154.431,57.5209 151.498,65.9194 151.498,75.4815C 151.498,75.8408 151.502,76.1985 151.51,76.5544C 153.839,76.7578 156.125,77.0241 158.36,77.3504C 158.417,69.3729 162.104,62.9373 166.642,62.9373C 171.217,62.9373 174.926,69.4745 174.926,77.539C 174.926,78.7499 174.842,79.9265 174.684,81.0517C 177.332,81.8942 179.85,82.8323 182.22,83.8565C 182.73,81.2221 183.006,78.4068 183.006,75.4815C 183.006,64.7161 179.274,55.4417 173.879,51.1896C 172.024,50.5378 170.072,50.1965 168.075,50.1965C 164.808,50.1965 161.711,51.1093 158.87,52.7845 Z "/>
			<path fill="#000000" fill-opacity="1" stroke-width="0.2" stroke-linejoin="round" d="M 103.391,79.7831C 103.455,79.0517 103.488,78.3022 103.488,77.539C 103.488,69.4745 99.7798,62.9373 95.2054,62.9373C 90.6311,62.9373 86.9219,69.4745 86.9219,77.539C 86.9219,79.6376 87.1731,81.633 87.6254,83.4365C 92.4796,81.8784 97.7727,80.6418 103.391,79.7831 Z "/>
			<linearGradient id="SVGID_Fill7_" gradientUnits="objectBoundingBox" x1="0.625434" y1="0.0146943" x2="1.6832" y2="0.0146943" gradientTransform="rotate(95.144234 0.625434 0.014694)">
				<stop offset="0" stop-color="#FFFFFF" stop-opacity="0.388235"/>
				<stop offset="1" stop-color="#000000" stop-opacity="0.388235"/>
			</linearGradient>
			<path fill="url(#SVGID_Fill7_)" stroke-width="0.2" stroke-linejoin="round" d="M 106.706,66.695C 106.706,73.7426 103.335,79.455 99.1755,79.455C 95.0161,79.455 91.645,73.7426 91.645,66.695C 91.645,59.6479 95.0161,53.9349 99.1755,53.9349C 103.335,53.9349 106.706,59.6479 106.706,66.695 Z "/>
			<linearGradient id="SVGID_Fill8_" gradientUnits="objectBoundingBox" x1="0.61336" y1="0.0483495" x2="1.57975" y2="0.0483495" gradientTransform="rotate(94.996574 0.613360 0.048350)">
				<stop offset="0" stop-color="#FFFFFF" stop-opacity="0.388235"/>
				<stop offset="1" stop-color="#000000" stop-opacity="0.388235"/>
			</linearGradient>
			<path fill="url(#SVGID_Fill8_)" stroke-width="0.2" stroke-linejoin="round" d="M 162.924,67.1132C 162.924,74.1611 166.295,79.8734 170.455,79.8734C 174.613,79.8734 177.985,74.1611 177.985,67.1132C 177.985,60.0663 174.613,54.3532 170.455,54.3532C 166.295,54.3532 162.924,60.0663 162.924,67.1132 Z "/>
			<radialGradient id="SVGID_Fill9_" cx="105.7" cy="65.0618" r="13.8209" gradientUnits="userSpaceOnUse">
				<stop offset="0" stop-color="#B88000" stop-opacity="1"/>
				<stop offset="1" stop-color="#4F2F00" stop-opacity="1"/>
			</radialGradient>
			<path fill="url(#SVGID_Fill9_)" stroke-width="0.2" stroke-linejoin="round" d="M 111.021,75.4815C 111.021,65.9194 108.086,57.5209 103.647,52.7845C 102.592,52.162 101.501,51.645 100.38,51.2409C 101.501,51.6452 102.592,52.1624 103.647,52.785C 108.086,57.5209 111.02,65.9199 111.02,75.4813C 111.02,76.6336 110.977,77.7689 110.895,78.8825C 110.978,77.7689 111.021,76.6337 111.021,75.4815 Z "/>
			<radialGradient id="SVGID_Fill10_" cx="86.616" cy="53.4875" r="2.29822" gradientUnits="userSpaceOnUse">
				<stop offset="0" stop-color="#B88000" stop-opacity="1"/>
				<stop offset="1" stop-color="#4F2F00" stop-opacity="1"/>
			</radialGradient>
			<path fill="url(#SVGID_Fill10_)" stroke-width="0.2" stroke-linejoin="round" d="M 88.6378,51.1896C 87.1484,52.3636 85.786,53.9203 84.5938,55.7856C 85.786,53.9203 87.1487,52.3635 88.6378,51.1896 Z "/>
			<radialGradient id="SVGID_Fill11_" cx="94.5089" cy="50.7186" r="5.87061" gradientUnits="userSpaceOnUse">
				<stop offset="0" stop-color="#FFFFFB" stop-opacity="1"/>
				<stop offset="0.755398" stop-color="#FBFBFB" stop-opacity="1"/>
				<stop offset="1" stop-color="#B3B3B3" stop-opacity="1"/>
			</radialGradient>
			<path fill="url(#SVGID_Fill11_)" stroke-width="0.2" stroke-linejoin="round" d="M 88.6382,51.1894C 90.4939,50.5378 92.4458,50.1965 94.443,50.1965C 96.4956,50.1965 98.4818,50.5569 100.38,51.2409C 98.4818,50.5568 96.4956,50.1961 94.4429,50.1961C 92.4456,50.1961 90.4934,50.5374 88.6382,51.1894 Z "/>
			<radialGradient id="SVGID_Fill12_" cx="82.053" cy="70.8796" r="15.094" gradientUnits="userSpaceOnUse">
				<stop offset="0" stop-color="#B88000" stop-opacity="1"/>
				<stop offset="1" stop-color="#4F2F00" stop-opacity="1"/>
			</radialGradient>
			<path fill="url(#SVGID_Fill12_)" stroke-width="0.2" stroke-linejoin="round" d="M 80.7675,85.9737C 79.9595,82.7523 79.5123,79.206 79.5123,75.4815C 79.5123,67.6883 81.4677,60.6765 84.5938,55.7856C 81.4674,60.6766 79.5122,67.6882 79.5122,75.4813C 79.5122,79.206 79.9592,82.7523 80.7675,85.9737 Z "/>
		</g>
		<radialGradient id="SVGID_Fill13_" cx="159.382" cy="78.5114" r="139.91" gradientUnits="userSpaceOnUse" gradientTransform="rotate(236.779953 159.381592 78.511414)">
			<stop offset="0" stop-color="#FFFFD6" stop-opacity="1"/>
			<stop offset="0.376744" stop-color="#FFFD31" stop-opacity="1"/>
			<stop offset="0.740593" stop-color="#FFC817" stop-opacity="1"/>
			<stop offset="1" stop-color="#F6A700" stop-opacity="1"/>
		</radialGradient>
		<path fill="url(#SVGID_Fill13_)" stroke-width="0.2" stroke-linejoin="round" d="M 128.516,20.9538C 73.2927,20.9538 28.5269,65.3455 28.5269,120.106C 28.5269,174.867 73.2927,219.259 128.516,219.259C 183.738,219.259 228.504,174.867 228.504,120.106C 228.504,65.3455 183.738,20.9538 128.516,20.9538 Z M 57.6538,91.0888C 57.6538,69.1804 88.2125,51.4194 125.907,51.4194C 163.601,51.4194 194.16,69.1804 194.16,91.0888C 194.16,112.997 163.602,130.758 125.907,130.758C 88.2118,130.758 57.6538,112.997 57.6538,91.0888 Z "/>
		<path fill="#643D00" fill-opacity="1" stroke-width="7.224" stroke-linecap="round" stroke-linejoin="round" stroke="#653D00" stroke-opacity="1" d="M 113.371,32.0746C 113.371,32.0746 74.1268,41.5322 58.8406,74.1972C 64.2651,35.7361 113.371,32.0746 113.371,32.0746 Z "/>
		<path fill="#643D00" fill-opacity="1" stroke-width="7.224" stroke-linecap="round" stroke-linejoin="round" stroke="#653D00" stroke-opacity="1" d="M 152.244,36.132C 152.244,36.132 187.561,44.9979 201.664,78.2546C 191.211,40.6813 152.244,36.132 152.244,36.132 Z "/>
		<radialGradient id="SVGID_Fill14_" cx="129.443" cy="154.979" r="87.5694" gradientUnits="userSpaceOnUse" gradientTransform="rotate(77.728630 129.442993 154.979431)">
			<stop offset="0" stop-color="#9E1F01" stop-opacity="1"/>
			<stop offset="0.943965" stop-color="#180906" stop-opacity="1"/>
		</radialGradient>
		<path fill="url(#SVGID_Fill14_)" stroke-width="4" stroke-linejoin="round" stroke="#D98004" stroke-opacity="1" d="M 69.1808,105.908C 67.8262,111.201 68.4236,125.375 69.6587,135.127C 70.8937,144.878 72.7661,150.208 75.3711,155.121C 77.9761,160.035 81.3136,164.532 87.1541,168.338C 92.9945,172.143 101.338,175.257 111.351,176.814C 121.363,178.371 133.044,178.371 143.265,176.295C 153.486,174.219 162.246,170.067 169.547,164.705C 176.848,159.343 182.688,152.769 186.443,146.369C 190.198,139.969 191.866,133.741 192.415,126.974C 192.964,120.206 192.392,112.897 191.455,108.529C 190.518,104.162 189.214,102.734 186.791,102.929C 184.369,103.124 180.827,104.94 178.353,106.432C 175.878,107.924 174.47,109.092 167.234,110.616C 159.999,112.141 146.936,114.022 138.251,114.952C 129.566,115.881 125.26,115.86 120.186,115.935C 115.112,116.011 109.272,116.184 101.971,114.843C 94.6704,113.503 85.9097,110.648 79.8759,107.427C 73.842,104.205 70.5354,100.616 69.1808,105.908 Z "/>
		<radialGradient id="SVGID_Fill15_" cx="117.689" cy="164.439" r="30.8634" gradientUnits="userSpaceOnUse">
			<stop offset="0" stop-color="#F1EBEA" stop-opacity="1"/>
			<stop offset="0.0818966" stop-color="#F77F7F" stop-opacity="1"/>
			<stop offset="0.280172" stop-color="#FD1414" stop-opacity="1"/>
			<stop offset="0.521552" stop-color="#FF0000" stop-opacity="1"/>
			<stop offset="0.722198" stop-color="#BA0C01" stop-opacity="1"/>
			<stop offset="0.943965" stop-color="#751803" stop-opacity="1"/>
		</radialGradient>
		<path fill="url(#SVGID_Fill15_)" stroke-width="0.2" stroke-linejoin="round" d="M 126.558,146.326C 137.442,146.326 146.266,152.814 146.266,160.817C 146.266,168.82 137.442,175.308 126.558,175.308C 115.673,175.308 106.85,168.82 106.85,160.817C 106.85,152.814 115.673,146.326 126.558,146.326 Z "/>
		<radialGradient id="SVGID_Fill16_" cx="130.909" cy="135.221" r="68.4973" gradientUnits="userSpaceOnUse">
			<stop offset="0" stop-color="#F8F6F2" stop-opacity="1"/>
			<stop offset="0.646512" stop-color="#F0EEEA" stop-opacity="1"/>
			<stop offset="1" stop-color="#999A9D" stop-opacity="1"/>
		</radialGradient>
		<path fill="url(#SVGID_Fill16_)" stroke-width="0.2" stroke-linejoin="round" d="M 72.054,107.55C 72.7709,111.702 75.5721,121.133 83.7426,129.829C 91.9128,138.525 105.452,146.485 117.081,150.175C 128.709,153.866 138.426,153.286 148.852,148.649C 159.277,144.012 170.411,135.317 177.872,126.279C 185.333,117.241 189.121,107.86 187.799,105.211C 186.477,102.563 180.045,106.646 170.653,109.839C 161.261,113.031 148.909,115.332 136.357,116.555C 123.805,117.778 111.052,117.923 100.638,115.925C 90.224,113.928 82.1475,109.788 77.4258,107.155C 72.704,104.523 71.3369,103.397 72.054,107.55 Z "/>
		<path fill="#D98004" fill-opacity="1" stroke-width="3" stroke-linecap="round" stroke-linejoin="round" stroke="#D98004" stroke-opacity="1" d="M 83.6156,96.4914C 83.6156,96.4914 66.8091,99.6428 60.2627,110.528C 62.5858,97.7115 83.6156,96.4914 83.6156,96.4914 Z "/>
		<path fill="#D98004" fill-opacity="1" stroke-width="3" stroke-linecap="round" stroke-linejoin="round" stroke="#D98004" stroke-opacity="1" d="M 200.814,113.321C 200.814,113.321 191.931,98.7104 179.436,96.4294C 192.247,94.0772 200.814,113.321 200.814,113.321 Z "/>
	</g>
</svg>
